!!!OTL: Der geistliche Tannebaum.
!!!ARE: Europa, Mitteleuropa, Deutschland
!!!SCT: A0656A
!!!TXL: @@DE
!!!YEM: Copyright 1995, estate of Helmut Schaffrath.
**kern	**text
*M4/4	*
*met(c|)	*
*clefC1	*
*k[b-]	*
*g:	*
!LO:TX:a:t=P:2r, 4r in the source:problem	!
{4dd	O
=1	=1
4.a	Dan-
8g/	-ne-
4a	-baum,
4dd	o
=2	=2
4.a	Dan-
8g/	-ne-
4a	-baum,
4a	hold-
=3	=3
4dd	-ſe-
4cc	-lig
4.b-	iſt
8b-	dein
=4	=4
2a	Nam:}
4r}	.
{4dd	Im
=5	=5
4.a	gan-
8g/	-tʒe
4a	wald
4dd	wird
=6	=6
4.a	wachſe
8g/	.
4a	kaum
4a	ein
=7	=7
4dd	ſol-
4cc	-cher
4.b-	ed-
8b-	-ler
=8	=8
2a	ſtam.}
4r}	.
{4a	Die
=9	=9
4b-	Neſt*
4b-	gehn
4cc	weit
4cc	her-
=10	=10
2dd	-um-
4dd	-mer,
4dd	gar
=11	=11
4.cc	ʒier-
8cc	-lich
4.b-	auß-
8cc	-ge-
=12	=12
2a	-brait,
4r}	.
{4a	du
=13	=13
4b-	grünſt
4cc	im
4dd	win-
8b-	-ter
8b-	vn
=14	=14
2cc	ſom-
4cc	-mer,
4cc	im
=15	=15
4.dd	herbſt
8cc	vn
4b-	frü-
4a	-li
=16	=16
!LO:TX:a:t=P:1g in the source:problem	!
!LO:N:vis=1	!
2.;g}	ʒei.
==	==
!!!GTL: Geistliche Volkslieder
!!!AGN: Romanze, Ballade, Lied, religioeses Lied
!! Fl. Blatt
!!!ONB: ESAC (Essen Associative Code) Database: ALTDEU
!!!AMT: simple quadruple
!!!AIN: vox
!!!EED: Helmut Schaffrath
!!!EEV: 1.0
!!@@COMMENT:"*Nest, Nast = Ast, Aeste."
!!@@END:
!!!URL-scan: https://rosdok.uni-rostock.de/mcrviewer/recordIdentifier/rosdok_ppn738218359/iview2/phys_0835.iview2?x=-495.6391625615763&y=1836.515763525851&scale=0.4629418472063854&rotation=0&layout=singlePageLayout
!!!ENC: Anna Maria Matuszewska
!!!EEV: 2024/26/03
*-	*-
